sources/images/svg/i-2.svg

<?xml version="1.0" encoding="UTF-8" standalone="no"?>
<svg width="34px" height="39px" viewBox="0 0 34 39" version="1.1" xmlns="http://www.w3.org/2000/svg" xmlns:xlink="http://www.w3.org/1999/xlink" xmlns:sketch="http://www.bohemiancoding.com/sketch/ns">
    <!-- Generator: Sketch 3.0.4 (8053) - http://www.bohemiancoding.com/sketch -->
    <title>i-2</title>
    <desc>Created with Sketch.</desc>
    <defs></defs>
    <g id="Page-1" stroke="none" stroke-width="1" fill="none" fill-rule="evenodd" sketch:type="MSPage">
        <g id="i-2" sketch:type="MSLayerGroup" transform="translate(1.000000, 1.000000)" fill="#63B1FF">
            <path d="M23.48445,9.93867647 L8.4491,9.93867647 C7.9178,9.93867647 7.4866,10.3767941 7.4866,10.9166176 L7.4866,19.0609118 C7.4866,19.6007353 7.9178,20.0388529 8.4491,20.0388529 L23.48445,20.0388529 C24.0163,20.0388529 24.44695,19.6007353 24.44695,19.0609118 L24.44695,10.9166176 C24.44695,10.3767941 24.0163,9.93867647 23.48445,9.93867647 L23.48445,9.93867647 Z M9.4116,11.8945588 L22.52195,11.8945588 L22.52195,18.0829706 L9.4116,18.0829706 L9.4116,11.8945588 Z" id="Fill-1" sketch:type="MSShapeGroup"></path>
            <path d="M14.27195,17.2665294 C14.48315,17.2665294 14.69435,17.1838235 14.8555,17.0206471 L17.688,14.1438235 C18.0103,13.8163529 18.0103,13.2849118 17.688,12.9585588 C17.3657,12.6305294 16.84375,12.6305294 16.52145,12.9574412 L13.68895,15.8348235 C13.36665,16.1622941 13.36665,16.6926176 13.68895,17.0200882 C13.8501,17.1838235 14.06075,17.2665294 14.27195,17.2665294" id="Fill-2" sketch:type="MSShapeGroup"></path>
            <path d="M17.49385,17.0200882 C17.655,17.1838235 17.86565,17.2665294 18.07685,17.2665294 C18.28805,17.2665294 18.49925,17.1838235 18.6604,17.0200882 L20.34285,15.3100882 C20.66515,14.9831765 20.66515,14.4522941 20.34285,14.1253824 C20.02055,13.7973529 19.4986,13.7973529 19.1763,14.1253824 L17.49385,15.8348235 C17.17155,16.1622941 17.17155,16.6931765 17.49385,17.0200882" id="Fill-3" sketch:type="MSShapeGroup"></path>
            <path d="M31.71575,9.92526471 C31.5535,9.79841176 31.3533,9.72017647 31.1322,9.72017647 L29.07245,9.72017647 C28.74905,7.99229412 28.2018,6.85788235 28.0577,6.57847059 C27.3845,4.89529412 25.95285,3.11879412 25.90665,3.06235294 C23.43055,-0.157029412 20.1795,-0.0687352941 20.07665,-0.0659411765 L11.89265,-0.0653823529 C11.75075,-0.0726470588 8.50355,-0.159823529 6.04065,3.04279412 C5.9796,3.11879412 4.54795,4.89529412 3.87475,6.57902941 C3.73065,6.85788235 3.1867,7.98614706 2.8633,9.72017647 L0.7964,9.72017647 C0.57585,9.72017647 0.37565,9.79841176 0.2134,9.92526471 C-0.0539,10.0990588 -0.23155,10.4013824 -0.23155,10.7467353 L-0.23155,15.1983235 C-0.23155,15.4799706 -0.11275,15.7308824 0.0748,15.9097059 C0.2497,16.0980294 0.4961,16.2165 0.7711,16.2165 L2.7929,16.2165 L3.2131,25.3119118 L3.2175,25.3711471 C3.22795,25.4717353 3.5035,27.8718824 5.66445,31.6836176 C5.7893,31.9043529 8.7967,37.0924706 14.5222,37.0924706 L17.4097,37.0924706 C23.13575,37.0924706 26.1426,31.9043529 26.268,31.6836176 C28.42895,27.8718824 28.7045,25.4717353 28.7155,25.3711471 L29.13845,16.2165 L31.1575,16.2165 C31.4325,16.2165 31.67945,16.0980294 31.85435,15.9097059 C32.0419,15.7308824 32.1607,15.4799706 32.1607,15.1983235 L32.1607,10.7467353 C32.1607,10.4013824 31.9825,10.0990588 31.71575,9.92526471 L31.71575,9.92526471 Z M1.69345,14.2606176 L1.69345,11.6760588 L2.6367,11.6760588 C2.6246,11.9141176 2.6169,12.1566471 2.6169,12.4075588 L2.70215,14.2606176 L1.69345,14.2606176 L1.69345,14.2606176 Z M26.79875,25.1800294 C26.7641,25.4203235 26.4253,27.4874118 24.6004,30.7051176 C24.57565,30.7492647 22.00715,35.1365882 17.4097,35.1365882 L14.5222,35.1365882 C9.9253,35.1365882 7.3568,30.7492647 7.3326,30.7073529 C5.5,27.4751176 5.16615,25.4035588 5.13425,25.1805882 L4.5408,12.3617353 C4.5408,9.43238235 5.57865,7.48935294 5.5869,7.47314706 L5.643,7.35411765 C6.1941,5.94308824 7.51355,4.30182353 7.54215,4.26717647 C9.3951,1.85752941 11.726,1.88826471 11.8558,1.88994118 L20.1135,1.88938235 C20.13,1.88714706 22.5148,1.82902941 24.40515,4.28561765 C24.41835,4.30182353 25.73835,5.94308824 26.28945,7.35411765 L26.345,7.47314706 C26.356,7.49214706 27.3922,9.39885294 27.3933,12.3159118 L26.79875,25.1800294 L26.79875,25.1800294 Z M30.2357,14.2606176 L29.2292,14.2606176 L29.3172,12.3617353 C29.3172,12.1270294 29.31005,11.8995882 29.29905,11.6760588 L30.2357,11.6760588 L30.2357,14.2606176 L30.2357,14.2606176 Z" id="Fill-4" sketch:type="MSShapeGroup"></path>
        </g>
    </g>
</svg>

<svg width="34" height="39" viewBox="0 0 34 39" xmlns="http://www.w3.org/2000/svg"><g id="i-2" transform="translate(1 1)" fill="#63B1FF" fill-rule="evenodd"><path d="M23.484 9.94H8.45c-.532 0-.963.437-.963.977v8.144c0 .54.43.98.962.98h15.033c.532 0 .963-.44.963-.98V10.92c0-.54-.43-.978-.963-.978zM9.412 11.894h13.11v6.188H9.412v-6.188z" id="Fill-1"/><path d="M14.272 17.267c.21 0 .422-.083.583-.246l2.833-2.875c.322-.328.322-.86 0-1.185-.322-.33-.844-.33-1.167-.003l-2.83 2.878c-.322.327-.322.858 0 1.185.16.164.37.247.583.247" id="Fill-2"/><path d="M17.494 17.02c.16.164.372.247.583.247.21 0 .422-.083.583-.247l1.683-1.71c.322-.327.322-.858 0-1.185-.322-.328-.844-.328-1.167 0l-1.682 1.71c-.322.327-.322.858 0 1.185" id="Fill-3"/><path d="M31.716 9.925c-.163-.127-.363-.205-.584-.205h-2.06c-.323-1.728-.87-2.862-1.014-3.142-.674-1.683-2.105-3.46-2.15-3.516-2.477-3.22-5.73-3.13-5.83-3.128h-8.185c-.142-.007-3.39-.094-5.852 3.11-.06.075-1.49 1.85-2.164 3.535-.144.277-.688 1.405-1.012 3.14H.796c-.22 0-.42.077-.583.204-.267.174-.445.476-.445.822v4.45c0 .283.12.534.307.713.175.187.42.305.696.305h2.024l.42 9.096.004.06c.01.1.286 2.5 2.447 6.313.125.22 3.133 5.408 8.858 5.408h2.888c5.727 0 8.734-5.187 8.86-5.407 2.16-3.812 2.435-6.212 2.446-6.313l.423-9.154h2.02c.273 0 .52-.118.695-.306.188-.18.307-.43.307-.712v-4.45c0-.347-.177-.65-.444-.823zM1.693 14.26v-2.584h.944c-.012.238-.02.48-.02.732l.085 1.853h-1.01zM26.8 25.18c-.036.24-.375 2.307-2.2 5.525-.024.044-2.593 4.432-7.19 4.432h-2.888c-4.597 0-7.165-4.388-7.19-4.43-1.832-3.232-2.166-5.303-2.198-5.526L4.54 12.364c0-2.93 1.04-4.873 1.047-4.89l.056-.118c.55-1.41 1.87-3.052 1.9-3.087 1.852-2.41 4.183-2.38 4.313-2.377h8.257c.017-.002 2.402-.06 4.292 2.397.013.016 1.333 1.657 1.884 3.068l.054.12c.01.018 1.047 1.925 1.048 4.842L26.8 25.18zm3.436-10.92H29.23l.087-1.898c0-.235-.007-.462-.018-.686h.935v2.585z" id="Fill-4"/></g></svg>
